X:418
T:Portree Men, The 
C:Joe Buchanan's Scottish Tome - Page 381.0
I:381 0
C:Mauchline, J.
R:March
Z:Carl Allison
L:1/8
M:2/4
K:D
A/B/ | d/>e/f/>e/ dA | B/<A/B/<d/ Ad/>e/ | f/g/f/e/ d/<A/a/>f/ | e2 eA/>B/ |
d/>e/f/>e/ dA | B/<A/B/<d/ Ad/>e/ | fa/>f/ ee/>f/ | d2 d :|
g | aa f/<a/d/>e/ | f/<e/d/>e/ fd/>f/ | aa f/>d/a/>f/ | e2 eg |
aa f/<a/d/>e/ | f/>e/d/>e/ fd/>e/ | fa/>f/ ee/>f/ | d2 dg |
aa f/<a/d/>e/ | f/>e/d/>e/ fd/>f/ | aa f/>d/a/>f/ | e2 eg |
aa fe/>d/ | B/>c/d/>B/ A/>B/d/>e/ | fa/>f/ ee/>f/ | d2 d |]
B | A/>B/d/>e/ fe/>d/ | e/>f/e/>d/ Bd/>B/ | A/>B/d/>e/ f/>d/a/>f/ | e2 eg |
aa fe/>d/ | B/>c/d/>B/ A/>B/d/>e/ | fa/>f/ ee/>f/ | d2 d :|
W:Errata: Changed to key of D after listening to the tune.

